X:8309
T:Springleik etter Thorvald Trondsg\aard
C:anon.
O:Norway
A:Hedmark
S:Springleik
Z:anamnese@caramail.com
F:http://abc.musicaviva.com/tunes/norway/trondsgard-springleik/trondsgard-springleik-1.abc
%Posted May 23rd 2002 at abcusers by Eric Forgeot
M:3/4
L:1/8
Q:1/4=130
K:F
A>B GA F>(A| (3c)Ac (3B(GB) A>(G| A)>(B G)A F>A |(3GAB A4 :|
|: A>B GA F>F | (3EFE D2 (D^C) | D>(E (3F)(DF) E>^C | D2 A4 |
 A>B GA F>F | (3EFE D2 (D^C) | D>(E (3F)(DF) E>^C | (3EGF D4 :|
W:
W:
W:  From Musica Viva - http://www.musicaviva.com
W:  the Internet center for free sheet music downloads.

